public/flags/ck.svg

<svg xmlns="http://www.w3.org/2000/svg" xmlns:xlink="http://www.w3.org/1999/xlink" viewBox="0 0 600 300"><clipPath id="a"><path d="M0 0v75h350v75h-50zm300 0H150v200H0v-50z"/></clipPath><path fill="#00247d" d="M0 0h600v300H0z"/><path stroke="#fff" stroke-width="30" d="m0 0 300 150m0-150L0 150"/><path stroke="#cf142b" stroke-width="20" d="m0 0 300 150m0-150L0 150" clip-path="url(#a)"/><path stroke="#fff" stroke-width="50" d="M150 0v200M0 75h350"/><path stroke="#cf142b" stroke-width="30" d="M150 0v200M0 75h350"/><path fill="#00247d" d="M300 0v150H0v150h600V0z"/><g transform="translate(450 150)"><g id="d" fill="#fff" transform="translate(0 -102)"><g id="c"><path id="b" d="M0-22.5V0h12" transform="rotate(18 0 -22.5)"/><use xlink:href="#b" transform="scale(-1 1)"/></g><use xlink:href="#c" transform="rotate(72)"/><use xlink:href="#c" transform="rotate(144)"/><use xlink:href="#c" transform="rotate(216)"/><use xlink:href="#c" transform="rotate(288)"/></g><g id="e"><use xlink:href="#d" transform="rotate(24)"/><use xlink:href="#d" transform="rotate(48)"/><use xlink:href="#d" transform="rotate(72)"/><use xlink:href="#d" transform="rotate(96)"/><use xlink:href="#d" transform="rotate(120)"/><use xlink:href="#d" transform="rotate(144)"/><use xlink:href="#d" transform="rotate(168)"/></g><use xlink:href="#e" transform="rotate(168)"/></g></svg>

<svg xmlns="http://www.w3.org/2000/svg" xmlns:xlink="http://www.w3.org/1999/xlink" viewBox="0 0 600 300">
<clipPath id="cp">
<path d="M0,0V75H350V150H300zM300,0H150V200H0V150z"/>
</clipPath>
<rect width="600" height="300" fill="#00247d"/>
<path d="M0,0L300,150M300,0L0,150" stroke="#fff" stroke-width="30"/>
<path d="M0,0L300,150M300,0L0,150" stroke="#cf142b" stroke-width="20" clip-path="url(#cp)"/>
<path d="M150,0V200M0,75H350" stroke="#fff" stroke-width="50"/>
<path d="M150,0V200M0,75H350" stroke="#cf142b" stroke-width="30"/>
<path d="M300,0V150H0V300H600V0z" fill="#00247d"/>
<g transform="translate(450,150)">
<g id="s1" transform="translate(0,-102)" fill="#fff">
<g id="c">
<path id="t" d="M0,-22.5V0H12" transform="rotate(18,0,-22.5)"/>
<use xlink:href="#t" transform="scale(-1,1)"/>
</g>
<use xlink:href="#c" transform="rotate(72)"/>
<use xlink:href="#c" transform="rotate(144)"/>
<use xlink:href="#c" transform="rotate(216)"/>
<use xlink:href="#c" transform="rotate(288)"/>
</g>
<g id="s7">
<use xlink:href="#s1" transform="rotate(24)"/>
<use xlink:href="#s1" transform="rotate(48)"/>
<use xlink:href="#s1" transform="rotate(72)"/>
<use xlink:href="#s1" transform="rotate(96)"/>
<use xlink:href="#s1" transform="rotate(120)"/>
<use xlink:href="#s1" transform="rotate(144)"/>
<use xlink:href="#s1" transform="rotate(168)"/>
</g>
<use xlink:href="#s7" transform="rotate(168)"/>
</g>
</svg>
